packages/ffe-icons/icons/filled/md/aspect_ratio.svg

<svg xmlns="http://www.w3.org/2000/svg" height="24" viewBox="0 -960 960 960" width="24"><path d="M690.001-349.999H600q-12.75 0-21.375 8.628-8.624 8.629-8.624 21.384 0 12.756 8.624 21.371 8.625 8.615 21.375 8.615h113.846q15.365 0 25.759-10.394t10.394-25.759V-440q0-12.75-8.628-21.374-8.629-8.625-21.384-8.625-12.756 0-21.371 8.625-8.615 8.624-8.615 21.374v90.001ZM269.999-610.001H360q12.75 0 21.374-8.628 8.625-8.629 8.625-21.384 0-12.756-8.625-21.371-8.624-8.615-21.374-8.615H246.154q-15.365 0-25.759 10.394t-10.394 25.759V-520q0 12.75 8.628 21.374 8.629 8.625 21.384 8.625 12.756 0 21.371-8.625 8.615-8.624 8.615-21.374v-90.001Zm-97.69 430q-30.308 0-51.308-21t-21-51.308v-455.382q0-30.308 21-51.308t51.308-21h615.382q30.308 0 51.308 21t21 51.308v455.382q0 30.308-21 51.308t-51.308 21H172.309Z"/></svg>

<svg xmlns="http://www.w3.org/2000/svg" height="24" viewBox="0 -960 960 960" width="24"><path d="M690-350h-90q-12.75 0-21.37 8.63-8.63 8.63-8.63 21.38 0 12.76 8.63 21.37Q587.25-290 600-290h113.85q15.36 0 25.76-10.39Q750-310.79 750-326.15V-440q0-12.75-8.63-21.37-8.63-8.63-21.38-8.63-12.76 0-21.37 8.63Q690-452.75 690-440v90ZM270-610h90q12.75 0 21.37-8.63 8.63-8.63 8.63-21.38 0-12.76-8.63-21.37Q372.75-670 360-670H246.15q-15.36 0-25.76 10.39Q210-649.21 210-633.85V-520q0 12.75 8.63 21.37 8.63 8.63 21.38 8.63 12.76 0 21.37-8.63Q270-507.25 270-520v-90Zm-97.69 430Q142-180 121-201q-21-21-21-51.31v-455.38Q100-738 121-759q21-21 51.31-21h615.38Q818-780 839-759q21 21 21 51.31v455.38Q860-222 839-201q-21 21-51.31 21H172.31Z"/></svg>
